gtk/icon/64x64/apps/brave.svg

<svg xmlns="http://www.w3.org/2000/svg" width="64" height="64" version="1.1" viewBox="0 0 64 64">
 <path d="M 23.143972,4.9999998 18.432146,9.793759 c -0.06251,0.02064 -0.522864,-0.363805 -1.025028,-0.511328 -1.345933,-0.3953676 -3.054832,-0.3278834 -4.215843,0.19961 -0.759496,0.345048 -1.053908,0.587853 -2.860161,2.362499 -1.9468614,1.91275 -2.3311088,2.371746 -2.3311138,2.778125 0,0.105238 0.7035064,1.131839 1.0498276,1.935937 l 0.6282436,1.462889 -0.8073478,2.214845 c -0.4439068,1.218026 -0.8269966,2.281458 -0.8541906,2.365232 -0.068864,0.213452 6.234119,24.488698 6.563491,25.270684 0.597933,1.419522 1.537921,2.69251 2.755452,3.735156 1.099354,0.941422 12.256542,8.556196 13.361194,9.119136 C 31.023616,60.893164 31.550288,60.989418 32,61 c 0.449722,-0.0106 0.976382,-0.10684 1.303328,-0.273456 1.104652,-0.56294 12.261838,-8.17772 13.361194,-9.119136 1.21753,-1.042646 2.157518,-2.315634 2.755452,-3.735156 0.32937,-0.781986 6.632358,-25.057232 6.563496,-25.270684 -0.0272,-0.08378 -0.410286,-1.147206 -0.854194,-2.365232 L 54.321928,18.021491 54.95017,16.558602 C 55.296516,15.754504 56,14.72791 56,14.622665 55.999994,14.216284 55.615768,13.75729 53.668888,11.84454 51.862634,10.069894 51.56822,9.827089 50.808722,9.482041 49.647712,8.9545476 47.938812,8.8870634 46.59288,9.282431 46.090718,9.429953 45.630358,9.814396 45.567852,9.793759 L 40.856026,4.9999998 H 32 Z" style="opacity:0.2"/>
 <path style="fill:#ee5132" d="M 23.143972,3.9999998 18.432146,8.7937594 C 18.36964,8.8143956 17.909282,8.429954 17.407118,8.2824314 16.061185,7.8870634 14.352286,7.9545476 13.191275,8.482041 c -0.759496,0.345048 -1.053908,0.5878526 -2.860161,2.362499 -1.9468614,1.91275 -2.3311088,2.371746 -2.3311138,2.778125 0,0.105238 0.7035064,1.131839 1.0498276,1.935937 l 0.6282436,1.462889 -0.8073478,2.214845 c -0.4439068,1.218026 -0.8269966,2.281458 -0.8541906,2.365232 -0.068864,0.213452 6.234119,24.488698 6.563491,25.270684 0.597933,1.419522 1.537921,2.69251 2.755452,3.735156 1.099354,0.941422 12.256542,8.556196 13.361194,9.119136 C 31.023616,59.893164 31.550288,59.989418 32,60 c 0.449722,-0.0106 0.976382,-0.10684 1.303328,-0.273456 1.104652,-0.56294 12.261838,-8.17772 13.361194,-9.119136 1.21753,-1.042646 2.157518,-2.315634 2.755452,-3.735156 0.32937,-0.781986 6.632358,-25.057232 6.563496,-25.270684 -0.0272,-0.08378 -0.410286,-1.147206 -0.854194,-2.365232 L 54.321928,17.021491 54.95017,15.558602 C 55.296516,14.754504 56,13.72791 56,13.622665 55.999994,13.216284 55.615768,12.75729 53.668888,10.84454 51.862634,9.0698936 51.56822,8.827089 50.808722,8.482041 49.647712,7.9545476 47.938812,7.8870634 46.59288,8.2824314 46.090718,8.4299534 45.630358,8.814396 45.567852,8.7937594 L 40.856026,3.9999998 H 32 Z"/>
 <path style="opacity:0.2" d="m 34.256668,47.49416 c 0,0 2.45417,-1.61751 4.639048,-3.180464 1.229168,-0.879314 1.422894,-1.103508 1.222012,-1.414482 -0.16082,-0.248692 -4.126302,-2.198708 -6.022134,-2.96103 -1.994086,-0.801796 -2.20357,-0.802748 -4.137922,-0.0158 -1.734558,0.703536 -5.637146,2.632652 -5.964644,2.948332 -0.338146,0.325948 -0.16786,0.624908 0.684358,1.201292 1.7556,1.18743 5.121332,3.471064 5.121332,3.471064 2.288548,1.949488 2.11084,1.951392 4.45795,-0.04762 z m -9.19932,-6.97467 c 2.380062,-1.118326 2.735874,-1.349556 4.55529,-2.960346 1.52954,-1.354106 1.812574,-1.756934 1.594958,-2.269982 -0.07374,-0.17356 -1.223042,-1.233464 -2.554074,-2.354964 -3.14597,-2.6508 -3.014272,-2.277178 -1.817198,-5.154502 0.710882,-1.708678 0.89646,-2.280514 0.89394,-2.754246 -0.0042,-0.715654 -0.269464,-1.25262 -0.803384,-1.623858 -0.216502,-0.1508 -2.11741,-0.916778 -4.224244,-1.702912 -2.106834,-0.78608 -3.818543,-1.481256 -3.803799,-1.54491 0.03364,-0.145512 2.357043,-0.398438 4.043717,-0.44024 l 1.275838,-0.03176 2.345332,0.818624 c 2.046524,0.71433 2.367766,0.860952 2.521308,1.150864 0.09678,0.18308 0.17464,0.428598 0.17302,0.545748 -0.0014,0.11748 -0.380882,1.81514 -0.842808,3.772722 -0.809096,3.428734 -0.831886,3.567262 -0.621556,3.776692 0.333722,0.332296 3.60518,1.103774 4.626508,1.025886 1.166628,-0.0889 3.549796,-0.800316 3.790502,-1.038742 0.19454,-0.19314 0.15768,-0.411666 -0.63477,-3.763836 -0.462714,-1.957582 -0.842606,-3.655254 -0.844194,-3.772722 -0.0014,-0.11746 0.07688,-0.364044 0.17428,-0.548076 0.1537,-0.289964 0.45572,-0.432302 2.278282,-1.069274 2.938218,-1.027524 2.878482,-1.019058 5.548392,-0.782006 1.244988,0.11058 2.313526,0.247634 2.374522,0.30478 0.0654,0.06138 -0.0086,0.14974 -0.18226,0.21483 -0.16124,0.06084 -1.878868,0.705388 -3.816928,1.432046 -1.938044,0.726712 -3.727256,1.452738 -3.976008,1.613382 -0.58468,0.3778 -0.868488,0.917042 -0.872454,1.658146 -0.0028,0.468812 0.1818,1.036308 0.873414,2.69038 0.482128,1.153034 0.87659,2.204688 0.87659,2.33692 0,0.534954 -0.399,0.966938 -2.610704,2.826314 -1.27071,1.06832 -2.398672,2.099656 -2.506578,2.291836 -0.10792,0.19208 -0.16958,0.485216 -0.137,0.651682 0.05584,0.284674 1.577708,1.755506 3.127918,3.022518 0.650874,0.53199 4.593984,2.998812 5.225676,3.09887 0.52901,0.08412 1.09442,-0.705334 2.019712,-1.471626 0.907254,-0.75153 1.447972,-1.50364 1.81558,-2.525238 0.344778,-0.95826 0.258086,-1.603962 -0.42382,-3.156546 -0.520334,-1.18473 -0.658474,-1.83546 -0.483916,-2.279562 0.04012,-0.10212 1.448088,-1.434112 3.128834,-2.96008 3.661208,-3.324018 4.535016,-3.919558 4.735736,-4.513404 0.22294,-0.659406 0.06566,-2.527348 -0.43461,-3.400896 -1.19683,-2.0896 -6.165918,-8.631862 -6.588024,-8.631862 -2.174222,0.347642 -3.993776,1.116366 -6.284634,1.469617 -0.17996,2.64e-4 -0.945462,-0.186786 -1.70112,-0.416429 -3.226464,-0.978422 -4.272958,-1.053346 -4.897676,-1.053346 -0.62472,0 -1.671214,0.07461 -4.897678,1.053346 -0.755658,0.229122 -1.529494,0.416966 -1.719612,0.416966 -2.256864,-0.326476 -3.929856,-1.203991 -6.266197,-1.470146 -0.364232,0.241285 -3.596001,4.672992 -4.93405,6.609356 -1.573471,2.276968 -2.018151,3.569212 -2.146128,4.436144 -0.17907,1.213146 0.276203,1.417338 4.976868,5.676916 1.581202,1.432736 2.907166,2.686994 2.946574,2.787266 0.17636,0.449234 0.03704,1.126262 -0.475683,2.312208 -0.704153,1.628886 -0.767225,2.081082 -0.427362,3.06453 0.369583,1.069434 0.996106,1.93409 1.94244,2.680646 0.879998,0.69417 1.220334,1.389558 1.739552,1.40104 0.18582,0.0042 1.231488,-0.936198 2.323706,-1.449246 z"/>
 <path d="m 34.256668,46.49416 c 0,0 2.45417,-1.61751 4.639048,-3.180464 1.229168,-0.879314 1.422894,-1.103508 1.222012,-1.414482 -0.16082,-0.248692 -4.126302,-2.198708 -6.022134,-2.96103 -1.994086,-0.801796 -2.20357,-0.802748 -4.137922,-0.0158 -1.734558,0.703536 -5.637146,2.632652 -5.964644,2.948332 -0.338146,0.325948 -0.16786,0.624908 0.684358,1.201292 1.7556,1.18743 5.121332,3.471064 5.121332,3.471064 2.288548,1.949488 2.11084,1.951392 4.45795,-0.04762 z m -9.19932,-6.97467 c 2.380062,-1.118326 2.735874,-1.349556 4.55529,-2.960346 1.52954,-1.354106 1.812574,-1.756934 1.594958,-2.269982 -0.07374,-0.17356 -1.223042,-1.233464 -2.554074,-2.354964 -3.14597,-2.6508 -3.014272,-2.277178 -1.817198,-5.154502 0.710882,-1.708678 0.89646,-2.280514 0.89394,-2.754246 -0.0042,-0.715654 -0.269464,-1.25262 -0.803384,-1.623858 -0.216502,-0.1508 -2.11741,-0.916778 -4.224244,-1.702912 -2.106834,-0.78608 -3.818543,-1.481256 -3.803799,-1.54491 0.03364,-0.145512 2.357043,-0.398439 4.043717,-0.44024 l 1.275838,-0.03175 2.345332,0.818623 c 2.046524,0.714331 2.367766,0.860953 2.521308,1.150865 0.09678,0.18308 0.17464,0.428598 0.17302,0.545748 -0.0014,0.11748 -0.380882,1.81514 -0.842808,3.772722 -0.809096,3.428734 -0.831886,3.567262 -0.621556,3.776692 0.333722,0.332296 3.60518,1.103774 4.626508,1.025886 1.166628,-0.0889 3.549796,-0.800316 3.790502,-1.038742 0.19454,-0.19314 0.15768,-0.411666 -0.63477,-3.763836 -0.462714,-1.957582 -0.842606,-3.655254 -0.844194,-3.772722 -0.0014,-0.11746 0.07688,-0.364044 0.17428,-0.548076 0.1537,-0.289964 0.45572,-0.432302 2.278282,-1.069273 2.938218,-1.027525 2.878482,-1.019058 5.548392,-0.782006 1.244988,0.110586 2.313526,0.247633 2.374522,0.30478 0.0654,0.06138 -0.0086,0.149746 -0.18226,0.214828 -0.16124,0.06084 -1.878868,0.705389 -3.816928,1.432047 -1.938044,0.726712 -3.727256,1.452738 -3.976008,1.613382 -0.58468,0.3778 -0.868488,0.917042 -0.872454,1.658146 -0.0028,0.468812 0.1818,1.036308 0.873414,2.69038 0.482128,1.153034 0.87659,2.204688 0.87659,2.33692 0,0.534954 -0.399,0.966938 -2.610704,2.826314 -1.27071,1.06832 -2.398672,2.099656 -2.506578,2.291836 -0.10792,0.19208 -0.16958,0.485216 -0.137,0.651682 0.05584,0.284674 1.577708,1.755506 3.127918,3.022518 0.650874,0.53199 4.593984,2.998812 5.225676,3.09887 0.52901,0.08412 1.09442,-0.705334 2.019712,-1.471626 0.907254,-0.75153 1.447972,-1.50364 1.81558,-2.525238 0.344778,-0.95826 0.258086,-1.603962 -0.42382,-3.156546 -0.520334,-1.18473 -0.658474,-1.83546 -0.483916,-2.279562 0.04012,-0.10212 1.448088,-1.434112 3.128834,-2.96008 3.661208,-3.324018 4.535016,-3.919558 4.735736,-4.513404 0.22294,-0.659406 0.06566,-2.527348 -0.43461,-3.400896 -1.19683,-2.0896 -6.165918,-8.631862 -6.588024,-8.631862 -2.174222,0.347642 -3.993776,1.116366 -6.284634,1.469617 -0.17996,2.64e-4 -0.945462,-0.186786 -1.70112,-0.416429 -3.226464,-0.978422 -4.272958,-1.053346 -4.897676,-1.053346 -0.62472,0 -1.671214,0.07461 -4.897678,1.053346 -0.755658,0.229114 -1.529494,0.416958 -1.719612,0.416958 -2.256864,-0.326476 -3.929856,-1.203991 -6.266197,-1.470146 -0.364232,0.241285 -3.596001,4.672992 -4.93405,6.609357 -1.573471,2.276967 -2.018151,3.569211 -2.146128,4.436143 -0.17907,1.213146 0.276203,1.417338 4.976868,5.676916 1.581202,1.432736 2.907166,2.686994 2.946574,2.787266 0.17636,0.449234 0.03704,1.126262 -0.475683,2.312208 -0.704153,1.628886 -0.767225,2.081082 -0.427362,3.06453 0.369583,1.069434 0.996106,1.93409 1.94244,2.680646 0.879998,0.69417 1.220334,1.389558 1.739552,1.40104 0.18582,0.0042 1.231488,-0.936198 2.323706,-1.449246 z" style="fill:#ffffff"/>
 <path style="fill:#ffffff;opacity:0.1" d="M 23.144531 4 L 18.431641 8.7929688 C 18.369135 8.8136049 17.908414 8.4307257 17.40625 8.2832031 C 16.060317 7.8878351 14.352417 7.9549285 13.191406 8.4824219 C 12.43191 8.8274699 12.138284 9.0691036 10.332031 10.84375 C 8.3851699 12.7565 8.000005 13.216668 8 13.623047 C 8 13.65596 8.1409189 13.886292 8.2460938 14.064453 C 8.522883 13.663624 9.0924638 13.061599 10.332031 11.84375 C 12.138284 10.069104 12.43191 9.8274699 13.191406 9.4824219 C 14.352417 8.9549285 16.060317 8.8878351 17.40625 9.2832031 C 17.908414 9.4307257 18.369135 9.8136049 18.431641 9.7929688 L 23.144531 5 L 32 5 L 40.855469 5 L 45.568359 9.7929688 C 45.630865 9.8136053 46.091588 9.4307251 46.59375 9.2832031 C 47.939682 8.8878351 49.647584 8.9549285 50.808594 9.4824219 C 51.568092 9.8274699 51.861715 10.069104 53.667969 11.84375 C 54.907548 13.061599 55.477121 13.663624 55.753906 14.064453 C 55.859079 13.886292 56 13.655962 56 13.623047 C 55.999994 13.216666 55.614849 12.7565 53.667969 10.84375 C 51.861715 9.0691036 51.568092 8.8274699 50.808594 8.4824219 C 49.647584 7.9549285 47.939682 7.8878351 46.59375 8.2832031 C 46.091588 8.4307251 45.630865 8.8136053 45.568359 8.7929688 L 40.855469 4 L 32 4 L 23.144531 4 z M 9.4804688 17.5625 L 8.8710938 19.236328 C 8.4271869 20.454354 8.042819 21.517789 8.015625 21.601562 C 8.0129975 21.609707 8.144917 22.12561 8.1601562 22.201172 C 8.2758041 21.875729 8.5023152 21.248212 8.8710938 20.236328 L 9.6777344 18.021484 L 9.4804688 17.5625 z M 54.519531 17.5625 L 54.322266 18.021484 L 55.128906 20.236328 C 55.497686 21.248212 55.724193 21.875727 55.839844 22.201172 C 55.855083 22.12561 55.987002 21.609707 55.984375 21.601562 C 55.957175 21.517782 55.572814 20.454354 55.128906 19.236328 L 54.519531 17.5625 z"/>
</svg>

<svg xmlns="http://www.w3.org/2000/svg" width="64" height="64" version="1.1">
 <path style="opacity:0.2" d="M 23.144,5 18.432,9.7938 C 18.37,9.8144 17.909,9.43 17.407,9.2824 16.061,8.8871 14.352,8.9545 13.191,9.482 12.432,9.8271 12.137,10.07 10.331,11.845 8.3843,13.757 8,14.216 8,14.623 8,14.728 8.7035,15.755 9.0498,16.559 L 9.6781,18.021 8.8707,20.236 C 8.4268,21.454 8.0437,22.518 8.0165,22.602 7.9477,22.815 14.251,47.09 14.58,47.872 15.178,49.292 16.118,50.565 17.335,51.607 18.435,52.549 29.592,60.164 30.697,60.727 31.024,60.893 31.55,60.989 32,61 32.45,60.989 32.976,60.893 33.303,60.727 34.408,60.164 45.565,52.549 46.665,51.607 47.882,50.565 48.822,49.292 49.42,47.872 49.749,47.09 56.052,22.815 55.983,22.602 55.956,22.518 55.573,21.454 55.129,20.236 L 54.322,18.021 54.95,16.559 C 55.297,15.755 56,14.728 56,14.623 56,14.216 55.616,13.757 53.669,11.845 51.863,10.07 51.568,9.8271 50.809,9.482 49.648,8.9545 47.939,8.8871 46.593,9.2824 46.091,9.43 45.63,9.8144 45.568,9.7938 L 40.856,5 H 32 Z"/>
 <path style="fill:#ee5132" d="M 23.144,4 18.432,8.7938 C 18.37,8.8144 17.909,8.43 17.407,8.2824 16.061,7.8871 14.352,7.9545 13.191,8.482 12.432,8.8271 12.137,9.0699 10.331,10.845 8.3843,12.757 8,13.216 8,13.623 8,13.728 8.7035,14.755 9.0498,15.559 L 9.6781,17.021 8.8707,19.236 C 8.4268,20.454 8.0437,21.518 8.0165,21.602 7.9477,21.815 14.251,46.09 14.58,46.872 15.178,48.292 16.118,49.565 17.335,50.607 18.435,51.549 29.592,59.164 30.697,59.727 31.024,59.893 31.55,59.989 32,60 32.45,59.989 32.976,59.893 33.303,59.727 34.408,59.164 45.565,51.549 46.665,50.607 47.882,49.565 48.822,48.292 49.42,46.872 49.749,46.09 56.052,21.815 55.983,21.602 55.956,21.518 55.573,20.454 55.129,19.236 L 54.322,17.021 54.95,15.559 C 55.297,14.755 56,13.728 56,13.623 56,13.216 55.616,12.757 53.669,10.845 51.863,9.0699 51.568,8.8271 50.809,8.482 49.648,7.9545 47.939,7.8871 46.593,8.2824 46.091,8.43 45.63,8.8144 45.568,8.7938 L 40.856,4 H 32 Z"/>
 <path style="opacity:0.2" d="M 34.257,47.494 C 34.257,47.494 36.711,45.877 38.896,44.314 40.125,43.434 40.319,43.21 40.118,42.899 39.957,42.651 35.991,40.701 34.096,39.938 32.102,39.136 31.892,39.135 29.958,39.922 28.223,40.626 24.321,42.555 23.993,42.871 23.655,43.197 23.825,43.496 24.677,44.072 26.433,45.259 29.799,47.543 29.799,47.543 32.087,49.493 31.91,49.494 34.257,47.495 Z M 25.057,40.519 C 27.437,39.401 27.793,39.17 29.613,37.559 31.142,36.205 31.425,35.802 31.208,35.289 31.134,35.116 29.985,34.056 28.654,32.934 25.508,30.283 25.639,30.657 26.836,27.78 27.547,26.071 27.733,25.499 27.73,25.025 27.726,24.31 27.461,23.773 26.927,23.402 26.71,23.251 24.809,22.485 22.703,21.699 20.596,20.913 18.884,20.217 18.899,20.154 18.932,20.008 21.256,19.755 22.943,19.714 L 24.218,19.682 26.564,20.5 C 28.61,21.215 28.931,21.361 29.085,21.651 29.182,21.834 29.26,22.08 29.258,22.197 29.257,22.314 28.877,24.012 28.415,25.97 27.606,29.398 27.583,29.537 27.794,29.746 28.127,30.079 31.399,30.85 32.42,30.772 33.587,30.683 35.97,29.972 36.211,29.734 36.405,29.54 36.368,29.322 35.576,25.97 35.113,24.012 34.733,22.314 34.732,22.197 34.73,22.08 34.809,21.833 34.906,21.649 35.06,21.359 35.362,21.217 37.184,20.58 40.123,19.552 40.063,19.561 42.733,19.798 43.978,19.908 45.046,20.045 45.107,20.102 45.173,20.164 45.099,20.252 44.925,20.317 44.764,20.378 43.046,21.023 41.108,21.749 39.17,22.476 37.381,23.202 37.132,23.363 36.547,23.74 36.264,24.28 36.26,25.021 36.257,25.49 36.441,26.057 37.133,27.711 37.615,28.864 38.01,29.916 38.01,30.048 38.01,30.583 37.611,31.015 35.399,32.874 34.128,33.943 33,34.974 32.892,35.166 32.784,35.358 32.723,35.651 32.755,35.818 32.811,36.103 34.333,37.573 35.883,38.84 36.534,39.372 40.477,41.839 41.109,41.939 41.638,42.023 42.203,41.234 43.129,40.468 44.036,39.716 44.577,38.964 44.944,37.942 45.289,36.984 45.202,36.339 44.52,34.786 44,33.601 43.862,32.95 44.036,32.506 44.077,32.404 45.485,31.072 47.165,29.546 50.826,26.222 51.7,25.627 51.901,25.033 52.124,24.373 51.967,22.506 51.466,21.632 50.27,19.542 45.3,13 44.878,13 42.704,13.348 40.885,14.117 38.594,14.47 38.414,14.47 37.648,14.283 36.893,14.053 33.666,13.075 32.62,13 31.995,13 31.37,13 30.324,13.075 27.097,14.053 26.342,14.282 25.568,14.47 25.378,14.47 23.121,14.144 21.448,13.266 19.111,13 18.747,13.241 15.515,17.673 14.177,19.61 12.604,21.886 12.159,23.179 12.031,24.046 11.852,25.259 12.307,25.463 17.008,29.723 18.589,31.155 19.915,32.41 19.955,32.51 20.131,32.959 19.992,33.636 19.479,34.822 18.775,36.451 18.712,36.903 19.052,37.887 19.421,38.956 20.048,39.821 20.994,40.567 21.874,41.261 22.214,41.957 22.734,41.968 22.919,41.972 23.965,41.032 25.057,40.519 Z"/>
 <path style="fill:#ffffff" d="M 34.257,46.494 C 34.257,46.494 36.711,44.877 38.896,43.314 40.125,42.434 40.319,42.21 40.118,41.899 39.957,41.651 35.991,39.701 34.096,38.938 32.102,38.136 31.892,38.135 29.958,38.922 28.223,39.626 24.321,41.555 23.993,41.871 23.655,42.197 23.825,42.496 24.677,43.072 26.433,44.259 29.799,46.543 29.799,46.543 32.087,48.493 31.91,48.494 34.257,46.495 Z M 25.057,39.519 C 27.437,38.401 27.793,38.17 29.613,36.559 31.142,35.205 31.425,34.802 31.208,34.289 31.134,34.116 29.985,33.056 28.654,31.934 25.508,29.283 25.639,29.657 26.836,26.78 27.547,25.071 27.733,24.499 27.73,24.025 27.726,23.31 27.461,22.773 26.927,22.402 26.71,22.251 24.809,21.485 22.703,20.699 20.596,19.913 18.884,19.217 18.899,19.154 18.932,19.008 21.256,18.755 22.943,18.714 L 24.218,18.682 26.564,19.5 C 28.61,20.215 28.931,20.361 29.085,20.651 29.182,20.834 29.26,21.08 29.258,21.197 29.257,21.314 28.877,23.012 28.415,24.97 27.606,28.398 27.583,28.537 27.794,28.746 28.127,29.079 31.399,29.85 32.42,29.772 33.587,29.683 35.97,28.972 36.211,28.734 36.405,28.54 36.368,28.322 35.576,24.97 35.113,23.012 34.733,21.314 34.732,21.197 34.73,21.08 34.809,20.833 34.906,20.649 35.06,20.359 35.362,20.217 37.184,19.58 40.123,18.552 40.063,18.561 42.733,18.798 43.978,18.908 45.046,19.045 45.107,19.102 45.173,19.164 45.099,19.252 44.925,19.317 44.764,19.378 43.046,20.023 41.108,20.749 39.17,21.476 37.381,22.202 37.132,22.363 36.547,22.74 36.264,23.28 36.26,24.021 36.257,24.49 36.441,25.057 37.133,26.711 37.615,27.864 38.01,28.916 38.01,29.048 38.01,29.583 37.611,30.015 35.399,31.874 34.128,32.943 33,33.974 32.892,34.166 32.784,34.358 32.723,34.652 32.755,34.818 32.811,35.103 34.333,36.573 35.883,37.84 36.534,38.372 40.477,40.839 41.109,40.939 41.638,41.023 42.203,40.234 43.129,39.468 44.036,38.716 44.577,37.964 44.944,36.943 45.289,35.984 45.202,35.339 44.52,33.786 44,32.601 43.862,31.95 44.036,31.506 44.077,31.404 45.485,30.072 47.165,28.546 50.826,25.222 51.7,24.627 51.901,24.033 52.124,23.374 51.967,21.506 51.466,20.632 50.27,18.542 45.3,12 44.878,12 42.704,12.348 40.885,13.117 38.594,13.47 38.414,13.47 37.648,13.283 36.893,13.053 33.666,12.075 32.62,12 31.995,12 31.37,12 30.324,12.075 27.097,13.053 26.342,13.282 25.568,13.47 25.378,13.47 23.121,13.144 21.448,12.266 19.111,12 18.747,12.241 15.515,16.673 14.177,18.61 12.604,20.886 12.159,22.179 12.031,23.046 11.852,24.259 12.307,24.463 17.008,28.723 18.589,30.155 19.915,31.41 19.955,31.51 20.131,31.959 19.992,32.636 19.479,33.822 18.775,35.451 18.712,35.903 19.052,36.887 19.421,37.956 20.048,38.821 20.994,39.567 21.874,40.261 22.214,40.957 22.734,40.968 22.919,40.972 23.965,40.032 25.057,39.519 Z"/>
 <path style="opacity:0.1;fill:#ffffff" d="M 23.145,4 18.432,8.793 C 18.369,8.8136 17.908,8.4307 17.406,8.2832 16.06,7.8878 14.352,7.9549 13.191,8.4824 12.432,8.8275 12.138,9.0691 10.332,10.844 8.3852,12.757 8,13.217 8,13.623 8,13.656 8.1409,13.886 8.2461,14.064 8.5229,13.664 9.0925,13.062 10.332,11.844 12.138,10.069 12.432,9.8275 13.191,9.4824 14.352,8.9549 16.06,8.8878 17.406,9.2832 17.908,9.4307 18.369,9.8136 18.432,9.793 L 23.145,5 H 32 40.855 L 45.568,9.793 C 45.631,9.8136 46.092,9.4307 46.594,9.2832 47.94,8.8878 49.648,8.9549 50.809,9.4824 51.568,9.8275 51.862,10.069 53.668,11.844 54.908,13.062 55.477,13.664 55.754,14.064 55.859,13.886 56,13.656 56,13.623 56,13.217 55.615,12.757 53.668,10.844 51.862,9.0691 51.568,8.8275 50.809,8.4824 49.648,7.9549 47.94,7.8878 46.594,8.2832 46.092,8.4307 45.631,8.8136 45.568,8.793 L 40.855,4 H 32 Z M 9.4805,17.562 8.8711,19.236 C 8.4272,20.454 8.0428,21.518 8.0156,21.602 8.013,21.61 8.1449,22.126 8.1602,22.201 8.2758,21.876 8.5023,21.248 8.8711,20.236 L 9.6777,18.021 Z M 54.52,17.562 54.322,18.021 55.129,20.236 C 55.498,21.248 55.724,21.876 55.84,22.201 55.855,22.126 55.987,21.61 55.984,21.602 55.957,21.518 55.573,20.454 55.129,19.236 Z"/>
</svg>
